Origami/32x32/apps/7kaa.svg

<svg width="32" height="32" version="1" xmlns="http://www.w3.org/2000/svg">
 <rect x="2" y="20" width="28" height="11" rx="2.8" ry="2.75" style="opacity:.2"/>
 <rect x="2" y="19" width="28" height="11" rx="2.8" ry="2.75" style="fill:#4f4f4f"/>
 <path d="M 12.335101,2 11.510603,4.4114355 9.5742185,2.730738 8.8962057,4.7092457 7.4313614,3.4366585 6.7101007,5.5433901 5.2871094,4.8484996 5.1308594,7.2309814 3.1442522,6.2603406 2.9796317,8.7806971 1,8.3891322 1.5050223,10.884671 5,19 H 27 L 30.494978,10.884671 31,8.3891322 29.020369,8.7806971 28.855748,6.2603406 26.869141,7.2309814 26.712891,4.8484996 25.289899,5.5433901 24.568639,3.4366585 23.103794,4.7092457 22.425781,2.730738 20.489397,4.4114355 19.664899,2 17.728516,3.6806974 17.434151,4.7657745 V 4.1425791 l -1.428571,-2.1177617 -0.0056,0.00827 -0.0056,-0.00827 -1.428571,2.1177617 V 4.7657745 L 14.271484,3.6806974 Z" style="fill:#4f4f4f"/>
 <path d="m19.478516 12.978914a1.50015 1.50015 0 0 0 -1.478516 1.521484v4.134766a1.50015 1.50015 0 0 0 0 0.408203v1.011719a1.50015 1.50015 0 0 0 0 0.529296v3.916016a1.50015 1.50015 0 1 0 3 0v-1.689453l2.376953 2.683594a1.50015 1.50015 0 1 0 2.246094 -1.988282l-3.505859-3.955078 3.517578-4.070312a1.50015 1.50015 0 0 0 -1.125 -2.496094 1.50015 1.50015 0 0 0 -1.144532 0.535156l-2.365234 2.736328v-1.755859a1.50015 1.50015 0 0 0 -1.521484 -1.521484zm-11.978516 0.021484a1.50015 1.50015 0 1 0 0 3h2.826172c-1.7429405 2.542107-2.326172 5.03477-2.326172 8.5a1.50015 1.50015 0 1 0 3 0c0-4.261905 0.461803-5.698276 3.583984-8.962891a1.50015 1.50015 0 0 0 -1.083984 -2.537109z" style="opacity:.2"/>
 <path d="m12.335938 2l-0.826172 2.4121094-1.9355472-1.6816406-0.6777344 1.9785156-1.4648438-1.2714844-0.7207031 2.1054688-1.4238281-0.6953126-0.15625 2.3828126-1.9863282-0.9707032-0.1640624 2.5214844-1.9804688-0.3925781 0.2109375 1.0410156 1.7695313 0.3515625 0.1640624-2.5214844 1.9863282 0.9707032 0.15625-2.3828126 1.4238281 0.6953126 0.7207031-2.1054688 1.4648438 1.2714844 0.6777344-1.9785156 1.9355472 1.6816406 0.826172-2.4121094 1.935546 1.6816406 0.294922 1.0839844v-0.6230469l1.427735-2.1171875 0.005859 0.0078125 0.005859-0.0078125 1.427735 2.1171875v0.6230469l0.294922-1.0839844 1.935546-1.6816406 0.826172 2.4121094 1.935547-1.6816406 0.677735 1.9785156 1.464843-1.2714844 0.720703 2.1054688 1.423829-0.6953126 0.15625 2.3828126 1.986328-0.9707032 0.164062 2.5214844 1.769531-0.3515625 0.210938-1.0410156-1.980469 0.3925781-0.164062-2.5214844-1.986328 0.9707032-0.15625-2.3828126-1.423829 0.6953126-0.720703-2.1054688-1.464843 1.2714844-0.677735-1.9785156-1.935547 1.6816406-0.826172-2.4121094-1.935546 1.6816406-0.294922 1.0839844v-0.6230469l-1.427735-2.1171875-0.005859 0.0078125-0.005859-0.0078125-1.427735 2.1171875v0.6230469l-0.294922-1.0839844-1.935546-1.6816406z" style="fill:#ffffff;opacity:.1"/>
 <path d="m7.5 13.5h6c-3.262756 3.411602-4 5.571614-4 10" style="fill:none;stroke-linecap:round;stroke-linejoin:round;stroke-width:3;stroke:#ffb73c"/>
 <path d="m19.500219 13.5v10" style="fill:none;stroke-linecap:round;stroke-linejoin:round;stroke-width:3;stroke:#ffb73c"/>
 <path transform="matrix(.57535592 0 0 .55363648 1.287187 -.2145457)" d="m25.571673 22.062393-10.428328-18.062393 20.856655-6e-7z" style="opacity:.2"/>
 <path d="m24.500219 13.5-5 5.785712" style="fill:none;stroke-linecap:round;stroke-linejoin:round;stroke-width:3;stroke:#ffb73c"/>
 <path d="m24.500219 23.5-5-5.642859" style="fill:none;stroke-linecap:round;stroke-linejoin:round;stroke-width:3;stroke:#ffb73c"/>
 <path transform="matrix(.57535592 0 0 .55363648 1.287187 -1.2145457)" d="m25.571673 22.062393-10.428328-18.062393 20.856655-6e-7z" style="fill:#f43e3e"/>
 <path d="m10 1l0.599609 1h10.800782l0.599609-1h-12z" style="fill:#ffffff;opacity:.1"/>
</svg>

<svg xmlns="http://www.w3.org/2000/svg" width="32" height="32" version="1">
 <rect style="opacity:0.2" width="28" height="11" x="2" y="20" rx="2.8" ry="2.75"/>
 <rect style="fill:#4f4f4f" width="28" height="11" x="2" y="19" rx="2.8" ry="2.75"/>
 <path style="fill:#4f4f4f" d="M 12.335101,2 11.510603,4.4114355 9.5742185,2.730738 8.8962057,4.7092457 7.4313614,3.4366585 6.7101007,5.5433901 5.2871094,4.8484996 5.1308594,7.2309814 3.1442522,6.2603406 2.9796317,8.7806971 1,8.3891322 1.5050223,10.884671 5,19 H 27 L 30.494978,10.884671 31,8.3891322 29.020369,8.7806971 28.855748,6.2603406 26.869141,7.2309814 26.712891,4.8484996 25.289899,5.5433901 24.568639,3.4366585 23.103794,4.7092457 22.425781,2.730738 20.489397,4.4114355 19.664899,2 17.728516,3.6806974 17.434151,4.7657745 V 4.1425791 l -1.428571,-2.1177617 -0.0056,0.00827 -0.0056,-0.00827 -1.428571,2.1177617 V 4.7657745 L 14.271484,3.6806974 Z"/>
 <path style="opacity:0.2" d="M 19.478516,12.978914 A 1.50015,1.50015 0 0 0 18,14.500398 v 4.134766 a 1.50015,1.50015 0 0 0 0,0.408203 v 1.011719 a 1.50015,1.50015 0 0 0 0,0.529296 v 3.916016 a 1.50015,1.50015 0 1 0 3,0 v -1.689453 l 2.376953,2.683594 a 1.50015,1.50015 0 1 0 2.246094,-1.988282 l -3.505859,-3.955078 3.517578,-4.070312 a 1.50015,1.50015 0 0 0 -1.125,-2.496094 1.50015,1.50015 0 0 0 -1.144532,0.535156 L 21,16.256257 V 14.500398 A 1.50015,1.50015 0 0 0 19.478516,12.978914 Z M 7.5,13.000398 a 1.50015,1.50015 0 1 0 0,3 h 2.826172 C 8.5832315,18.542505 8,21.035168 8,24.500398 a 1.50015,1.50015 0 1 0 3,0 c 0,-4.261905 0.461803,-5.698276 3.583984,-8.962891 A 1.50015,1.50015 0 0 0 13.5,13.000398 Z"/>
 <path style="opacity:0.1;fill:#ffffff" d="M 12.335938 2 L 11.509766 4.4121094 L 9.5742188 2.7304688 L 8.8964844 4.7089844 L 7.4316406 3.4375 L 6.7109375 5.5429688 L 5.2871094 4.8476562 L 5.1308594 7.2304688 L 3.1445312 6.2597656 L 2.9804688 8.78125 L 1 8.3886719 L 1.2109375 9.4296875 L 2.9804688 9.78125 L 3.1445312 7.2597656 L 5.1308594 8.2304688 L 5.2871094 5.8476562 L 6.7109375 6.5429688 L 7.4316406 4.4375 L 8.8964844 5.7089844 L 9.5742188 3.7304688 L 11.509766 5.4121094 L 12.335938 3 L 14.271484 4.6816406 L 14.566406 5.765625 L 14.566406 5.1425781 L 15.994141 3.0253906 L 16 3.0332031 L 16.005859 3.0253906 L 17.433594 5.1425781 L 17.433594 5.765625 L 17.728516 4.6816406 L 19.664062 3 L 20.490234 5.4121094 L 22.425781 3.7304688 L 23.103516 5.7089844 L 24.568359 4.4375 L 25.289062 6.5429688 L 26.712891 5.8476562 L 26.869141 8.2304688 L 28.855469 7.2597656 L 29.019531 9.78125 L 30.789062 9.4296875 L 31 8.3886719 L 29.019531 8.78125 L 28.855469 6.2597656 L 26.869141 7.2304688 L 26.712891 4.8476562 L 25.289062 5.5429688 L 24.568359 3.4375 L 23.103516 4.7089844 L 22.425781 2.7304688 L 20.490234 4.4121094 L 19.664062 2 L 17.728516 3.6816406 L 17.433594 4.765625 L 17.433594 4.1425781 L 16.005859 2.0253906 L 16 2.0332031 L 15.994141 2.0253906 L 14.566406 4.1425781 L 14.566406 4.765625 L 14.271484 3.6816406 L 12.335938 2 z"/>
 <path style="fill:none;stroke:#ffb73c;stroke-width:3;stroke-linecap:round;stroke-linejoin:round" d="m 7.5,13.5 h 6 c -3.262756,3.411602 -4,5.571614 -4,10"/>
 <path style="fill:none;stroke:#ffb73c;stroke-width:3;stroke-linecap:round;stroke-linejoin:round" d="m 19.500219,13.5 v 10"/>
 <path style="opacity:0.2" d="M 25.571673,22.062393 15.143345,4.0000003 36,3.9999997 Z" transform="matrix(0.57535592,0,0,0.55363648,1.287187,-0.2145457)"/>
 <path style="fill:none;stroke:#ffb73c;stroke-width:3;stroke-linecap:round;stroke-linejoin:round" d="m 24.500219,13.5 -5,5.785712"/>
 <path style="fill:none;stroke:#ffb73c;stroke-width:3;stroke-linecap:round;stroke-linejoin:round" d="m 24.500219,23.5 -5,-5.642859"/>
 <path style="fill:#f43e3e" d="M 25.571673,22.062393 15.143345,4.0000003 36,3.9999997 Z" transform="matrix(0.57535592,0,0,0.55363648,1.287187,-1.2145457)"/>
 <path style="opacity:0.1;fill:#ffffff" d="M 10 1 L 10.599609 2 L 21.400391 2 L 22 1 L 10 1 z"/>
</svg>
